tenants/businesswise/icons/back_to_top.svg

<svg fill="none" height="24" viewBox="0 0 24 24" width="24" xmlns="http://www.w3.org/2000/svg"><path clip-rule="evenodd" d="m2.625 2h18.75c.3438 0 .625.3375.625.75v1.5c0 .4125-.2812.75-.625.75h-18.75c-.34375 0-.625-.3375-.625-.75v-1.5c0-.4125.28125-.75.625-.75zm1.63336 12.4044.81356.7928c.34814.3428.91617.3357 1.25699-.0143l4.20709-4.3031v10.2632c0 .4749.3921.857.8795.857h1.1727c.4874 0 .8795-.3821.8795-.857v-10.2632l4.2034 4.2995c.3408.3464.9088.3536 1.257.0143l.8135-.7928c.3445-.3321.3445-.8749 0-1.2105l-7.1204-6.93854c-.3409-.33568-.8979-.33568-1.2424 0l-7.12044 6.94204c-.34448.3321-.34448.8749 0 1.2106z" fill="#000" fill-rule="evenodd"/></svg>

<svg width="24" height="24" viewBox="0 0 24 24" fill="none" xmlns="http://www.w3.org/2000/svg">
<path fill-rule="evenodd" clip-rule="evenodd" d="M2.625 2H21.375C21.7188 2 22 2.3375 22 2.75V4.25C22 4.6625 21.7188 5 21.375 5H2.625C2.28125 5 2 4.6625 2 4.25V2.75C2 2.3375 2.28125 2 2.625 2ZM4.25836 14.4044L5.07192 15.1972C5.42006 15.54 5.98809 15.5329 6.32891 15.1829L10.536 10.8798V21.143C10.536 21.6179 10.9281 22 11.4155 22H12.5882C13.0756 22 13.4677 21.6179 13.4677 21.143V10.8798L17.6711 15.1793C18.0119 15.5257 18.5799 15.5329 18.9281 15.1936L19.7416 14.4008C20.0861 14.0687 20.0861 13.5259 19.7416 13.1903L12.6212 6.25176C12.2803 5.91608 11.7233 5.91608 11.3788 6.25176L4.25836 13.1938C3.91388 13.5259 3.91388 14.0687 4.25836 14.4044Z" fill="black"/>
</svg>
